X: 14087
T: The SHORT BROTHERS' REEL
C: Bob McQuillen July'08
B: Bob's Note Book 14 #87
%R: reel
%D:2008
Z: 2020 John Chambers <jc:trillian.mit.edu>
M: C
L: 1/8
K: D
"_RICK"AG \
| FDFA dfed | BdAG FDFE | D2FA BAde | fdAF E2AG |
| FDFA dfed | BdAG FDFE | D2FA BAdB | AFEF D2 :|
|: "_JERRY"de \
| f2df edBA | defd B2de | f2af edBd | Adfd e2dc |
| BGBd Adfd | cdeg fdAG | F2FA BAdf | afef d2 :|
%%begintext align
%% Rick Watson and
%% Jerry Short are two of the very best sound
%% techs I have ever known. Every year they
%% provide sound for the Ralph Page Dance
%% Legacy Week-end in Durham, NH, and it's
%% always such a pleasure to have them there.
%% Thanks loads, guys! You make it sound perfect!!
%%endtext

%%sep 1 1 500

%%sep 1 1 500

